packages/radix-icons/outline/15/slash.svg

<svg width="15" height="15" fill="none" xmlns="http://www.w3.org/2000/svg">
  <path
    fill-rule="evenodd"
    clip-rule="evenodd"
    d="M7.49988 1.12704C3.98026 1.12704 1.12704 3.98026 1.12704 7.49988C1.12704 9.07975 1.70195 10.5254 2.65397 11.6389L2.64644 11.6464L2.76158 11.7616C2.91197 11.9287 3.07107 12.0878 3.23817 12.2382L3.35355 12.3535L3.3611 12.346C4.47461 13.2979 5.92011 13.8727 7.49988 13.8727C11.0195 13.8727 13.8727 11.0195 13.8727 7.49988C13.8727 5.92011 13.2979 4.47461 12.346 3.3611L12.3535 3.35355L12.2382 3.23817C12.0878 3.07107 11.9287 2.91197 11.7616 2.76158L11.6464 2.64644L11.6389 2.65397C10.5254 1.70195 9.07975 1.12704 7.49988 1.12704ZM10.9647 3.32815C10.0251 2.54688 8.81736 2.07704 7.49988 2.07704C4.50493 2.07704 2.07704 4.50493 2.07704 7.49988C2.07704 8.81736 2.54688 10.0251 3.32815 10.9647L10.9647 3.32815ZM4.03528 11.6718C4.97485 12.453 6.18251 12.9227 7.49988 12.9227C10.4948 12.9227 12.9227 10.4948 12.9227 7.49988C12.9227 6.18251 12.453 4.97485 11.6718 4.03528L4.03528 11.6718Z"
    fill="currentColor"
  />
</svg>

<svg width="15" height="15" fill="none" xmlns="http://www.w3.org/2000/svg">
  <path
    fill-rule="evenodd"
    clip-rule="evenodd"
    d="M7.5 1.127a6.373 6.373 0 00-4.846 10.512l-.008.007.116.116c.15.167.31.326.476.476l.116.116.007-.008a6.373 6.373 0 008.985-8.985l.008-.007-.116-.116a6.414 6.414 0 00-.476-.476l-.116-.116-.007.008a6.348 6.348 0 00-4.14-1.527zm3.465 2.201a5.423 5.423 0 00-7.637 7.637l7.637-7.637zm-6.93 8.344a5.423 5.423 0 007.637-7.637l-7.637 7.637z"
    fill="currentColor"
  />
</svg>
